public/assets/icons/white/orbital.svg

<?xml version="1.0" encoding="UTF-8" standalone="no"?>
<svg
   version="1.1"
   viewBox="0 -64 1024 1024"
   width="512"
   height="512"
   id="svg1"
   sodipodi:docname="orbital.svg"
   inkscape:version="1.3.1 (91b66b0783, 2023-11-16)"
   xmlns:inkscape="http://www.inkscape.org/namespaces/inkscape"
   xmlns:sodipodi="http://sodipodi.sourceforge.net/DTD/sodipodi-0.dtd"
   xmlns="http://www.w3.org/2000/svg"
   xmlns:svg="http://www.w3.org/2000/svg">
  <defs
     id="defs1" />
  <sodipodi:namedview
     id="namedview1"
     pagecolor="#ffffff"
     bordercolor="#000000"
     borderopacity="0.25"
     inkscape:showpageshadow="2"
     inkscape:pageopacity="0.0"
     inkscape:pagecheckerboard="0"
     inkscape:deskcolor="#d1d1d1"
     inkscape:zoom="1.5742188"
     inkscape:cx="256"
     inkscape:cy="255.68238"
     inkscape:window-width="1920"
     inkscape:window-height="1009"
     inkscape:window-x="3832"
     inkscape:window-y="-8"
     inkscape:window-maximized="1"
     inkscape:current-layer="svg1" />
  <g
     transform="matrix(1 0 0 -1 0 960)"
     id="g1"
     style="fill:#ffffff">
    <path
       fill="currentColor"
       d="M512 919q-49 0 -95.5 -10t-88.5 -28q-13 16 -31.5 25.5t-39.5 9.5q-37 0 -63.5 -26.5t-26.5 -63.5q0 -12 3.5 -24t9.5 -22q-32 -32 -58 -69q-25 -38 -43 -80.5t-28 -88.5q-9 -46 -9 -94q0 -97 37 -183q37 -85 101 -149t150 -101q85 -37 182 -37q98 0 183 37 q86 37 149.5 101t100.5 149q37 86 37 183t-37 183q-37 85 -100.5 149t-149.5 102q-85 37 -182 37h-1zM513 880q89 0 168 -34t137.5 -92.5t92.5 -137.5t34 -168q0 -90 -34 -169q-34 -78 -92.5 -137t-137.5 -92q-79 -34 -168 -34q-90 0 -169 34q-79 33 -138 92t-93 137 q-34 79 -34 169q0 44 9 87q8 42 24.5 80.5t40.5 73.5q23 35 52 64q11 -8 24 -12t28 -4q37 0 63 26t26 63q0 5 -0.5 10t-1.5 10q39 17 81.5 25.5t86.5 8.5h1zM512 776q-68 0 -129 -26q-60 -26 -105 -71t-71 -105q-26 -61 -26 -129q0 -69 26 -129t71 -105t105 -71 q61 -26 129 -26q53 0 101 15.5t88 43.5q11 -6 23.5 -9.5t25.5 -3.5q40 0 68 28t28 67q0 20 -7.5 36.5t-19.5 29.5q12 29 18 60t6 64q0 68 -26 129q-26 60 -71 105t-105 71t-129 26v0zM512 738q61 0 115 -23q53 -23 93 -62.5t63 -93.5q23 -53 23 -114q0 -27 -4.5 -52.5 t-13.5 -49.5q-9 4 -18.5 6t-19.5 2q-40 0 -68 -28t-28 -68q0 -15 5 -29.5t14 -26.5q-35 -23 -75.5 -35.5t-85.5 -12.5q-61 0 -114 23q-54 23 -94 63t-63 93q-23 54 -23 115t23 114q23 54 63 93.5t94 62.5q53 23 114 23v0zM510 699q-11 -48 -32.5 -91.5t-53.5 -75.5 q-31 -31 -72 -50t-89 -30q48 -12 91.5 -33t74.5 -53q32 -32 51 -73t30 -89q11 48 30 89t51 73t75 53t91 33q-48 11 -88.5 30t-72.5 50q-32 32 -53.5 75.5t-32.5 91.5v0zM510 526q31 0 53 -22t22 -52q0 -31 -22 -53t-53 -22q-30 0 -52 22t-22 53q0 30 22 52t52 22v0z"
       id="path1"
       style="fill:#ffffff" />
  </g>
</svg>

<?xml version="1.0" encoding="UTF-8" standalone="no"?>
<svg
   version="1.1"
   viewBox="0 -64 1024 1024"
   width="512"
   height="512"
   id="svg1"
   sodipodi:docname="orbital.svg"
   inkscape:version="1.2.2 (732a01da63, 2022-12-09)"
   xmlns:inkscape="http://www.inkscape.org/namespaces/inkscape"
   xmlns:sodipodi="http://sodipodi.sourceforge.net/DTD/sodipodi-0.dtd"
   xmlns="http://www.w3.org/2000/svg"
   xmlns:svg="http://www.w3.org/2000/svg">
  <defs
     id="defs1" />
  <sodipodi:namedview
     id="namedview1"
     pagecolor="#ffffff"
     bordercolor="#000000"
     borderopacity="0.25"
     inkscape:showpageshadow="2"
     inkscape:pageopacity="0.0"
     inkscape:pagecheckerboard="0"
     inkscape:deskcolor="#d1d1d1"
     inkscape:zoom="1.5742188"
     inkscape:cx="215.66252"
     inkscape:cy="255.99999"
     inkscape:window-width="1920"
     inkscape:window-height="1009"
     inkscape:window-x="-8"
     inkscape:window-y="-8"
     inkscape:window-maximized="1"
     inkscape:current-layer="svg1"
     showgrid="false" />
  <g
     transform="matrix(1,0,0,-1,0,896.5)"
     id="g1"
     style="fill:#ffffff">
    <path
       fill="currentColor"
       d="M 512,919 Q 463,919 416.5,909 370,899 328,881 315,897 296.5,906.5 278,916 257,916 220,916 193.5,889.5 167,863 167,826 167,814 170.5,802 174,790 180,780 148,748 122,711 97,673 79,630.5 61,588 51,542 42,496 42,448 42,351 79,265 116,180 180,116 244,52 330,15 q 85,-37 182,-37 98,0 183,37 86,37 149.5,101 63.5,64 100.5,149 37,86 37,183 0,97 -37,183 Q 908,716 844.5,780 781,844 695,882 610,919 513,919 Z m 1,-39 q 89,0 168,-34 79,-34 137.5,-92.5 Q 877,695 911,616 945,537 945,448 945,358 911,279 877,201 818.5,142 760,83 681,50 602,16 513,16 q -90,0 -169,34 -79,33 -138,92 -59,59 -93,137 -34,79 -34,169 0,44 9,87 8,42 24.5,80.5 16.5,38.5 40.5,73.5 23,35 52,64 11,-8 24,-12 13,-4 28,-4 37,0 63,26 26,26 26,63 0,5 -0.5,10 -0.5,5 -1.5,10 39,17 81.5,25.5 42.5,8.5 86.5,8.5 z m -1,-104 q -68,0 -129,-26 -60,-26 -105,-71 -45,-45 -71,-105 -26,-61 -26,-129 0,-69 26,-129 26,-60 71,-105 45,-45 105,-71 61,-26 129,-26 53,0 101,15.5 48,15.5 88,43.5 11,-6 23.5,-9.5 12.5,-3.5 25.5,-3.5 40,0 68,28 28,28 28,67 0,20 -7.5,36.5 Q 831,308 819,321 q 12,29 18,60 6,31 6,64 0,68 -26,129 -26,60 -71,105 -45,45 -105,71 -60,26 -129,26 z m 0,-38 q 61,0 115,-23 53,-23 93,-62.5 40,-39.5 63,-93.5 23,-53 23,-114 0,-27 -4.5,-52.5 Q 797,367 788,343 q -9,4 -18.5,6 -9.5,2 -19.5,2 -40,0 -68,-28 -28,-28 -28,-68 0,-15 5,-29.5 Q 664,211 673,199 638,176 597.5,163.5 557,151 512,151 q -61,0 -114,23 -54,23 -94,63 -40,40 -63,93 -23,54 -23,115 0,61 23,114 23,54 63,93.5 40,39.5 94,62.5 53,23 114,23 z m -2,-39 Q 499,651 477.5,607.5 456,564 424,532 q -31,-31 -72,-50 -41,-19 -89,-30 48,-12 91.5,-33 43.5,-21 74.5,-53 32,-32 51,-73 19,-41 30,-89 11,48 30,89 19,41 51,73 32,32 75,53 43,21 91,33 -48,11 -88.5,30 Q 628,501 596,532 564,564 542.5,607.5 521,651 510,699 Z m 0,-173 q 31,0 53,-22 22,-22 22,-52 0,-31 -22,-53 -22,-22 -53,-22 -30,0 -52,22 -22,22 -22,53 0,30 22,52 22,22 52,22 z"
       id="path1"
       style="fill:#ffffff" />
  </g>
</svg>
